X:36
T:Mansikka (Strawberry)
M:2/4
L:1/16
Q:1/4=80
S:arr. Eira Mattsson (Washington DC Finlandia Foundation) ~1976
R:jenkka
K:Am
|: "Am" e2a2 e2d2 | cdcB A2E2 | A2B2 c2B2 | "E7" ABcd e2E2 | !
"Am" e2a2 e2d2 | cdcB A2EE | A2BB "E7" c2B2 | "Am" A4 A4 :||
